images/email.svg

<svg id="Layer_1" xmlns="http://www.w3.org/2000/svg" viewBox="0 0 72 72"><style>.st0{fill:#383838;} .st1{fill:#FFFFFF;}</style><path class="st0" d="M-.1 0H72v72H-.1z"/><path class="st1" d="M12.1 54V18h47.6v36H12.1zm42.3-32.6c-.1 0-.1 0 0 0H17.9l.2.2c3.2 3.2 6.4 6.5 9.5 9.6 2.2 2.4 4.6 4.6 6.8 6.9.2.2.4.4.6.5.8.4 1.9.2 2.6-.5 5.5-5.5 11.1-11.2 16.6-16.7.2.1.2 0 .2 0zm-.3 29.2c-.2-.2-11.8-12.1-11.9-12.2l-.1.1-2.1 2.1-.5.5c-1.3.9-2.7 1.3-4.2 1.1-1.3-.2-2.3-.8-3.2-1.7-.7-.7-1.4-1.4-2-2.1l-.1-.2c-4 4.1-8 8.2-12 12.4h36.1zM27.5 36c-.1-.2-11.9-12.1-12-12.1v24.5c4-4.3 8-8.4 12-12.4zm17.1 0c4 4.1 7.9 8.1 11.9 12.2V24.1C52.5 28 48.6 32 44.6 36z" id="MUODtZ.tif"/></svg>

<?xml version="1.0" encoding="utf-8"?>
<!-- Generator: Adobe Illustrator 19.2.0, SVG Export Plug-In . SVG Version: 6.00 Build 0)  -->
<svg version="1.1" id="Layer_1" xmlns="http://www.w3.org/2000/svg" xmlns:xlink="http://www.w3.org/1999/xlink" x="0px" y="0px"
	 viewBox="0 0 72 72" style="enable-background:new 0 0 72 72;" xml:space="preserve">
<style type="text/css">
	.st0{fill:#383838;}
	.st1{fill:#FFFFFF;}
</style>
<rect x="-0.1" class="st0" width="72.1" height="72"/>
<g id="MUODtZ.tif">
	<g>
		<path class="st1" d="M12.1,54c0-12,0-24,0-36c15.9,0,31.8,0,47.6,0c0,12,0,24,0,36C43.9,54,28,54,12.1,54z M54.4,21.4L54.4,21.4
			C54.3,21.4,54.3,21.4,54.4,21.4c-12.2,0-24.3,0-36.5,0l0,0l0,0c0.1,0.1,0.1,0.1,0.2,0.2c3.2,3.2,6.4,6.5,9.5,9.6
			c2.2,2.4,4.6,4.6,6.8,6.9c0.2,0.2,0.4,0.4,0.6,0.5c0.8,0.4,1.9,0.2,2.6-0.5c5.5-5.5,11.1-11.2,16.6-16.7
			C54.4,21.5,54.4,21.4,54.4,21.4z M54.1,50.6c-0.2-0.2-11.8-12.1-11.9-12.2l-0.1,0.1c-0.7,0.7-1.4,1.4-2.1,2.1
			c-0.1,0.1-0.4,0.4-0.5,0.5c-1.3,0.9-2.7,1.3-4.2,1.1C34,42,33,41.4,32.1,40.5c-0.7-0.7-1.4-1.4-2-2.1L30,38.2
			c-4,4.1-8,8.2-12,12.4C30,50.6,42,50.6,54.1,50.6z M27.5,36c-0.1-0.2-11.9-12.1-12-12.1c0,8.1,0,16.2,0,24.5
			C19.5,44.1,23.5,40,27.5,36z M44.6,36c4,4.1,7.9,8.1,11.9,12.2c0-0.2,0-24,0-24.1C52.5,28,48.6,32,44.6,36z"/>
	</g>
</g>
</svg>
